X:1
T:Title
%%score 1 2 3 4
L:1/8
M:2/2
K:F
V:1 treble nm="Part_1"
V:2 treble-8 nm="Part_2"
V:3 treble-8 nm="Part_3"
V:4 bass nm="Part_4"
V:1
 F6 G2 | A4 F4 | E3 F G4- | G2 F4 E2 | F6 B2- | B2 A4 G2 | A8 | z8 | G6 A2 | B8 | A8- | A4 G4 | %12
 F6 ED | E2 F4 E2 | F4 z4 | F3 G A2 F2 | G6 F2 | B3 A G4 | A4 z2 A2 | G4 G4 | F3 E F4 | G4 G4 | %22
 F8- | F8 | F8 | z4 z2 A2 | c4 d4 | c3 B A4- | A2 GF F4 | G6 A2 | z2 B2 BA GF | G2 A2 G3 E | E8 | %33
 z2 F2 B4- | B2 AGFE DC | D3 E F2 D2 | E3 F G2 E2 | F3 G A2 F2 | A2 B3 A GF | E2 F4 E2 | F8 | %41
 z2 A2 c3 d | c2 B2 A3 G | F8 | G8 | A8 | z8 | B8 | B6 A2 | G2 F2 E3 F | G2 F4 E2 | F8 |] %52
V:2
 z8 | z8 | z8 | c8 | A4 B4- | B8 | A4 F4- | F4 G4 | E8 | F8- | F8 | z2 F4 E2 | F8 | G8 | F8- | F8 | %16
 z8 | z8 | z2 F2 A4 | c4 c4 | z2 d2 B4 | c4 c4 | z8 | z8 | d8 | e8 | f8- | f8 | f8 | e8 | d4 B4 | %31
 c4 c4 | z2 c2 A4 | B3 A G2 F2 | F3 E F2 G2 | F8 | z2 c2 c2 c2 | F8 | c2 d2 B4 | c8 | A4 d4 | c8- | %42
 c8 | z2 c4 d2 | e8 | f6 ed | e2 g4 f_e | d8- | d8 | !fermata!c8- | c8 | c8 |] %52
V:3
 F8 | F8 | G8- | G8 | F8 | z8 | z4 A4 | B4 c4- | c8 | d8- | d8 | c4 c4- | c2 BA B4 | c8- | c8 | %15
 c8 | c8 | z4 c4 | c8 | z8 | d8 | _e8 | d8 | c6 d2 | B6 A2 | G4 c4- | c2 A2 B4 | c8 | z2 F2 A4 | %29
 c4 c4 | B3 c d4 | e6 c2 | c4 z2 c2 | d8- | d8 | B8 | G8 | z2 B2 A4 | F8 | G8 | F4 z2 B2 | A8- | %42
 A8 | A8 | G8 | F8 | z2 _E2 G4 | B4 F2 G2- | G2 F2 F4 | E3 F G2 A2 | G8 | F8 |] %52
V:4
 z8 | z8 | C,8 | C,8 | D,8 | D,6 E,2 | F,6 E,2 | D,4 C,4- | C,8 | B,,8 | D,4 D,3 E, | F,4 C,4 | %12
 D,8 | C,8 | z8 | z8 | C,4 E,2 F,2 | G,8 | F,8 | E,8 | D,8 | C,8 | D,6 E,2 | F,8 | z8 | z8 | z8 | %27
 F,8 | D,8 | =E,4 C,4 | D,8 | C,8- | C,8 | B,,8- | B,,8 | B,,8 | C,8 | D,8 | z2 B,,2 D,4 | C,8 | %40
 D,8 | F,8 | F,8- | F,8 | E,8 | D,8 | C,8 | B,,8- | B,,8 | C,8 | C,8 | !fermata!F,,8 |] %52

